2 Export/Icons/Rounded/Settings.svg

<svg xmlns="http://www.w3.org/2000/svg" xmlns:xlink="http://www.w3.org/1999/xlink" width="24" height="24" viewBox="0 0 24 24">
  <defs>
    <path id="settings-a" d="M19.43 12.98c.04-.32.07-.64.07-.98 0-.34-.03-.66-.07-.98l2.11-1.65c.19-.15.24-.42.12-.64l-2-3.46c-.12-.22-.39-.3-.61-.22l-2.49 1c-.52-.4-1.08-.73-1.69-.98l-.38-2.65A.488.488 0 0 0 14 2h-4c-.25 0-.46.18-.49.42l-.38 2.65c-.61.25-1.17.59-1.69.98l-2.49-1c-.23-.09-.49 0-.61.22l-2 3.46c-.13.22-.07.49.12.64l2.11 1.65c-.04.32-.07.65-.07.98 0 .33.03.66.07.98l-2.11 1.65c-.19.15-.24.42-.12.64l2 3.46c.12.22.39.3.61.22l2.49-1c.52.4 1.08.73 1.69.98l.38 2.65c.03.24.24.42.49.42h4c.25 0 .46-.18.49-.42l.38-2.65c.61-.25 1.17-.59 1.69-.98l2.49 1c.23.09.49 0 .61-.22l2-3.46c.12-.22.07-.49-.12-.64l-2.11-1.65zM12 15.5c-1.93 0-3.5-1.57-3.5-3.5s1.57-3.5 3.5-3.5 3.5 1.57 3.5 3.5-1.57 3.5-3.5 3.5z"/>
  </defs>
  <g fill="none" fill-rule="evenodd">
    <polygon points="0 0 24 0 24 24 0 24"/>
    <mask id="settings-b" fill="#fff">
      <use xlink:href="#settings-a"/>
    </mask>
    <use fill="#000" xlink:href="#settings-a"/>
    <g fill="#000" mask="url(#settings-b)">
      <rect width="24" height="24"/>
    </g>
  </g>
</svg>

<svg xmlns="http://www.w3.org/2000/svg" xmlns:xlink="http://www.w3.org/1999/xlink" width="24" height="24" viewBox="0 0 24 24">
  <defs>
    <path id="settings-a" d="M19.43,12.98 C19.47,12.66 19.5,12.34 19.5,12 C19.5,11.66 19.47,11.34 19.43,11.02 L21.54,9.37 C21.73,9.22 21.78,8.95 21.66,8.73 L19.66,5.27 C19.54,5.05 19.27,4.97 19.05,5.05 L16.56,6.05 C16.04,5.65 15.48,5.32 14.87,5.07 L14.49,2.42 C14.46,2.18 14.25,2 14,2 L10,2 C9.75,2 9.54,2.18 9.51,2.42 L9.13,5.07 C8.52,5.32 7.96,5.66 7.44,6.05 L4.95,5.05 C4.72,4.96 4.46,5.05 4.34,5.27 L2.34,8.73 C2.21,8.95 2.27,9.22 2.46,9.37 L4.57,11.02 C4.53,11.34 4.5,11.67 4.5,12 C4.5,12.33 4.53,12.66 4.57,12.98 L2.46,14.63 C2.27,14.78 2.22,15.05 2.34,15.27 L4.34,18.73 C4.46,18.95 4.73,19.03 4.95,18.95 L7.44,17.95 C7.96,18.35 8.52,18.68 9.13,18.93 L9.51,21.58 C9.54,21.82 9.75,22 10,22 L14,22 C14.25,22 14.46,21.82 14.49,21.58 L14.87,18.93 C15.48,18.68 16.04,18.34 16.56,17.95 L19.05,18.95 C19.28,19.04 19.54,18.95 19.66,18.73 L21.66,15.27 C21.78,15.05 21.73,14.78 21.54,14.63 L19.43,12.98 Z M12,15.5 C10.07,15.5 8.5,13.93 8.5,12 C8.5,10.07 10.07,8.5 12,8.5 C13.93,8.5 15.5,10.07 15.5,12 C15.5,13.93 13.93,15.5 12,15.5 Z"/>
  </defs>
  <g fill="none" fill-rule="evenodd">
    <polygon points="0 0 24 0 24 24 0 24"/>
    <mask id="settings-b" fill="#fff">
      <use xlink:href="#settings-a"/>
    </mask>
    <use fill="#000" xlink:href="#settings-a"/>
    <g fill="#000" mask="url(#settings-b)">
      <rect width="24" height="24"/>
    </g>
  </g>
</svg>
